X: 14
T: Shange yuejin ge yueduo
%%abc-version 2.0
%%abcx-abcm2ps-target-version 5.9.1 (29 Sep 2008)
%%abc-creator hum2abc beta
%%abcx-conversion-date 2013/10/02 07:44:27
%%abc-edited-by Helmut Schaffrath
%%humdrum-veritas 2365593144
%%humdrum-veritas-data 1457331977
%%continueall 1
%%barnumbers 0
L: 1/4
M: 3/4
K: Bb
c'3 [I:setbarnb 1]| 
g3 | 
bc'b/ c'/ | 
gf3/g/ | 
bc'g/ b/ | 
c'g2- | 
g2b | 
c'c'g/ b/ | 
gf2 | 
c'bg | 
f3- | 
f2z | 
bc'b/ c'/ | 
gff | 
c'gg/ b/ | 
c'g2- | 
g2c' | 
bc'g/ b/ | 
gf2 | 
c'f2 | 
f3- | 
f3 |]  



